img/assets/sectionServices/studio-lighting.svg

<?xml version="1.0" encoding="UTF-8"?>
<svg width="43px" height="80px" viewBox="0 0 43 80" version="1.1" xmlns="http://www.w3.org/2000/svg" xmlns:xlink="http://www.w3.org/1999/xlink">
    <!-- Generator: Sketch 61 (89581) - https://sketch.com -->
    <title>studio-lighting</title>
    <desc>Created with Sketch.</desc>
    <g id="Inner-Pages" stroke="none" stroke-width="1" fill="none" fill-rule="evenodd">
        <g id="036--Services-2" transform="translate(-548.000000, -1112.000000)" fill="#888888" fill-rule="nonzero">
            <g id="section-SERVICES" transform="translate(400.000000, 618.000000)">
                <g id="service-4" transform="translate(0.000000, 390.000000)">
                    <g id="content" transform="translate(80.000000, 104.000000)">
                        <g id="studio-lighting" transform="translate(68.000000, 0.000000)">
                            <path d="M42.286572,0.535496957 C42.0381686,0.290214282 41.7012436,0.155631511 41.352211,0.162037238 L36.3355781,0.237728195 L36.3355781,0.267748479 C36.1507237,0.280630468 35.9701803,0.329583895 35.8041379,0.411845842 L23.1956187,6.56860041 C22.5767233,5.99511015 21.7641607,5.67636725 20.9204057,5.67610548 L19.0166329,5.67610548 C17.1586827,5.67825143 15.6530266,7.18383496 15.6507911,9.04178499 L15.6507911,18.7294118 C15.6529372,20.5874252 17.1586195,22.0931074 19.0166329,22.0952535 L19.155213,22.0952535 L19.2060041,36.0391075 L14.8869777,36.0391075 C14.1703494,36.0399124 13.5896081,36.6206536 13.5888032,37.3372819 L13.5888032,39.4455172 L8.61663286,39.4455172 C8.03732252,38.051927 6.39756592,37.0438945 4.46896552,37.0438945 C2.05809331,37.0438945 0.0967139959,38.617931 0.0967139959,40.5531846 C0.0967139959,42.4884381 2.05809331,44.0626369 4.46896552,44.0626369 C6.51959432,44.0626369 8.2440568,42.9234888 8.71399594,41.3924544 L13.5881542,41.3924544 L13.5881542,44.2677485 C13.588959,44.9843768 14.1697003,45.5651181 14.8863286,45.5659229 L19.1926978,45.5659229 L19.1951318,52.5974848 L7.40413793,76.9350101 L6.1663286,76.9350101 C5.62860714,76.9350101 5.19269777,77.3709195 5.19269777,77.908641 C5.19269777,78.4463624 5.62860714,78.8822718 6.1663286,78.8822718 L11.0635294,78.8822718 C11.6012509,78.8822718 12.0371602,78.4463624 12.0371602,77.908641 C12.0371602,77.3709195 11.6012509,76.9350101 11.0635294,76.9350101 L9.568357,76.9350101 L19.1967546,57.0604462 L19.2040568,78.0498174 L17.8852738,78.0498174 C17.3475524,78.0498174 16.911643,78.4857268 16.911643,79.0234483 C16.911643,79.5611697 17.3475524,79.9970791 17.8852738,79.9970791 L22.7829615,79.9970791 C23.3206829,79.9970791 23.7565923,79.5611697 23.7565923,79.0234483 C23.7565923,78.4857268 23.3206829,78.0498174 22.7829615,78.0498174 L21.1521298,78.0498174 L21.1440162,56.8355375 L31.4383773,76.7329817 L30.3407708,76.7329817 C29.8030493,76.7329817 29.36714,77.1688911 29.36714,77.7066126 C29.36714,78.244334 29.8030493,78.6802434 30.3407708,78.6802434 L35.2376471,78.6802434 C35.7753685,78.6802434 36.2112779,78.244334 36.2112779,77.7066126 C36.2112779,77.1688911 35.7753685,76.7329817 35.2376471,76.7329817 L33.6311562,76.7329817 L21.1430426,52.5950507 L21.1406085,45.5660852 L25.4795943,45.5660852 C26.1962226,45.5652803 26.7769639,44.9845391 26.7777688,44.2679108 L26.7777688,37.3377688 C26.7769639,36.6211405 26.1962226,36.0403992 25.4795943,36.0395943 L21.1532657,36.0395943 L21.1024746,22.0864909 C21.8990332,22.0442379 22.6543725,21.7191318 23.2326166,21.1696552 L35.8474645,26.9046653 C36.03264,26.9883069 36.2334842,27.0316175 36.4366734,27.0317241 C36.4559838,27.0317241 36.4749696,27.0284787 36.4942799,27.0276673 L41.5409331,27.0004057 C41.8869651,26.9988174 42.2181811,26.8597758 42.4616601,26.6138923 C42.7051392,26.3680089 42.8409195,26.0354427 42.8391254,25.6894118 L42.6774848,1.45557809 C42.6759349,1.10885176 42.5350705,0.77730279 42.286572,0.535496957 L42.286572,0.535496957 Z M4.4696146,42.1161866 C3.15521298,42.1161866 2.04462475,41.4007302 2.04462475,40.5539959 C2.04462475,39.7072617 3.15505071,38.9919675 4.4696146,38.9919675 C5.7841785,38.9919675 6.89460446,39.7072617 6.89460446,40.5539959 C6.89460446,41.4007302 5.7841785,42.1161866 4.4696146,42.1161866 Z M24.8305071,43.6188235 L15.5360649,43.6188235 L15.5360649,37.986856 L24.8305071,37.986856 L24.8305071,43.6188235 Z M22.3391481,18.7298986 C22.3382538,19.512988 21.7036574,20.1475845 20.920568,20.1484787 L19.0166329,20.1484787 C18.2335434,20.1475845 17.598947,19.512988 17.5980527,18.7298986 L17.5980527,9.04178499 C17.598947,8.25869553 18.2335434,7.62409911 19.0166329,7.62320487 L20.920568,7.62320487 C21.7036574,7.62409911 22.3382538,8.25869553 22.3391481,9.04178499 L22.3391481,18.7298986 Z M35.9157809,24.7970791 L24.2015416,19.4711562 C24.2572429,19.2279839 24.2857075,18.9793678 24.2864097,18.7298986 L24.2864097,9.04178499 C24.2854965,8.77521531 24.2528115,8.50970472 24.1890467,8.25087221 L35.9161055,2.52462475 L35.9157809,24.7970791 Z M37.8630426,25.0729412 L37.8630426,2.16227181 L40.7352535,2.11910751 L40.8884381,25.0570385 L37.8630426,25.0729412 Z" id="Shape"></path>
                        </g>
                    </g>
                </g>
            </g>
        </g>
    </g>
</svg>

<svg xmlns="http://www.w3.org/2000/svg" width="43" height="80" viewBox="0 0 43 80"><title>studio-lighting</title><path fill="#888" fill-rule="nonzero" d="M42.287.535a1.296 1.296 0 0 0-.935-.373l-5.016.076v.03a1.42 1.42 0 0 0-.532.144L23.196 6.569a3.349 3.349 0 0 0-2.276-.893h-1.903a3.37 3.37 0 0 0-3.366 3.366v9.687a3.37 3.37 0 0 0 3.366 3.366h.138l.051 13.944h-4.319a1.3 1.3 0 0 0-1.298 1.298v2.109H8.617c-.58-1.394-2.22-2.402-4.148-2.402-2.41 0-4.372 1.574-4.372 3.51 0 1.934 1.961 3.509 4.372 3.509 2.05 0 3.775-1.14 4.245-2.67h4.874v2.875a1.3 1.3 0 0 0 1.298 1.298h4.307l.002 7.031-11.79 24.338H6.165a.974.974 0 0 0 0 1.947h4.898a.974.974 0 1 0 0-1.947H9.568l9.629-19.875.007 20.99h-1.319a.974.974 0 0 0 0 1.947h4.898a.974.974 0 0 0 0-1.947h-1.63l-.009-21.214 10.294 19.897h-1.097a.974.974 0 0 0 0 1.947h4.897a.974.974 0 0 0 0-1.947H33.63L21.143 52.595l-.002-7.029h4.339a1.3 1.3 0 0 0 1.298-1.298v-6.93a1.3 1.3 0 0 0-1.298-1.298h-4.327l-.05-13.954a3.35 3.35 0 0 0 2.13-.916l12.614 5.735c.186.083.386.127.59.127.019 0 .038-.004.057-.004L41.541 27a1.304 1.304 0 0 0 1.298-1.31l-.162-24.234a1.292 1.292 0 0 0-.39-.92zM4.47 42.116c-1.315 0-2.425-.715-2.425-1.562 0-.847 1.11-1.562 2.425-1.562 1.314 0 2.425.715 2.425 1.562 0 .847-1.11 1.562-2.425 1.562zm20.36 1.503h-9.294v-5.632h9.295v5.632zm-2.49-24.89a1.42 1.42 0 0 1-1.42 1.42h-1.903a1.42 1.42 0 0 1-1.419-1.42V9.043a1.42 1.42 0 0 1 1.419-1.419h1.904a1.42 1.42 0 0 1 1.418 1.419v9.688zm13.576 6.068l-11.714-5.326c.055-.243.084-.492.084-.741V9.042c0-.267-.033-.532-.097-.791l11.727-5.726v22.272zm1.947.276V2.163l2.872-.044.153 22.938-3.025.016z"/></svg>
